src/lib/packages/icons/src/assets/line/wifi-slash.svg

<svg width="24" height="24" viewBox="0 0 24 24" fill="none" xmlns="http://www.w3.org/2000/svg">
<path d="M21.5301 3.52999L3.53011 21.53C3.38411 21.676 3.19208 21.75 3.00008 21.75C2.80808 21.75 2.61605 21.677 2.47005 21.53C2.17705 21.237 2.17705 20.762 2.47005 20.469L11.1312 11.808C9.41718 11.984 7.79407 12.672 6.49007 13.797C6.34807 13.919 6.17408 13.979 6.00008 13.979C5.79008 13.979 5.58118 13.891 5.43318 13.719C5.16218 13.406 5.19709 12.932 5.51009 12.661C7.30509 11.112 9.61008 10.259 12.0001 10.259C12.2201 10.259 12.4321 10.279 12.6461 10.293L14.859 8.07998C13.92 7.86498 12.9631 7.74899 12.0001 7.74899C8.85908 7.74899 5.84108 8.90298 3.50008 10.998C3.35708 11.126 3.17908 11.189 3.00008 11.189C2.79408 11.189 2.589 11.105 2.441 10.939C2.165 10.63 2.19108 10.156 2.50008 9.88C5.11608 7.538 8.49008 6.24899 12.0001 6.24899C13.3841 6.24899 14.7531 6.45998 16.0831 6.85598L20.47 2.46899C20.763 2.17599 21.2381 2.17599 21.5311 2.46899C21.8231 2.76199 21.8231 3.23799 21.5301 3.52999ZM12.0001 18C11.4481 18 11.0001 18.448 11.0001 19C11.0001 19.552 11.4481 20 12.0001 20C12.5521 20 13.0001 19.552 13.0001 19C13.0001 18.448 12.5521 18 12.0001 18ZM13.033 14.362C12.625 14.289 12.2362 14.56 12.1622 14.968C12.0892 15.376 12.3602 15.766 12.7672 15.839C13.4192 15.956 14.033 16.224 14.543 16.616C14.679 16.72 14.8391 16.771 14.9981 16.771C15.2241 16.771 15.4461 16.67 15.5941 16.478C15.8471 16.149 15.7842 15.678 15.4552 15.426C14.7572 14.889 13.919 14.521 13.033 14.362ZM16.378 11.275C16.001 11.093 15.5571 11.25 15.3751 11.622C15.1941 11.995 15.35 12.443 15.722 12.624C16.375 12.941 16.9761 13.336 17.5101 13.797C17.6521 13.92 17.8261 13.98 18.0001 13.98C18.2101 13.98 18.419 13.892 18.567 13.72C18.838 13.407 18.8031 12.933 18.4901 12.662C17.8581 12.116 17.147 11.649 16.378 11.275ZM19.4071 8.33801C19.0521 8.12401 18.592 8.238 18.378 8.592C18.163 8.946 18.2772 9.408 18.6322 9.622C19.2852 10.018 19.915 10.482 20.503 11.002C20.646 11.128 20.8231 11.19 21.0001 11.19C21.2071 11.19 21.4131 11.105 21.5621 10.937C21.8361 10.627 21.8081 10.153 21.4981 9.87798C20.8421 9.29898 20.1391 8.78101 19.4071 8.33801Z" fill="currentColor"/>
</svg>

<svg xmlns="http://www.w3.org/2000/svg" width="24" height="24" fill="none"><path fill="currentColor" d="m21.53 3.53-18 18a.748.748 0 0 1-1.06 0 .75.75 0 0 1 0-1.061l8.661-8.661a8.415 8.415 0 0 0-4.64 1.989.749.749 0 1 1-.98-1.136A9.932 9.932 0 0 1 12 10.259c.22 0 .431.02.645.034L14.86 8.08A12.803 12.803 0 0 0 12 7.749a12.729 12.729 0 0 0-8.5 3.249.746.746 0 0 1-1.06-.059.75.75 0 0 1 .06-1.059A14.224 14.224 0 0 1 12 6.249c1.384 0 2.753.211 4.083.607l4.387-4.387a.75.75 0 1 1 1.06 1.061ZM12 18a1 1 0 1 0 0 2 1 1 0 0 0 0-2Zm1.033-3.638a.75.75 0 0 0-.266 1.477 4.113 4.113 0 0 1 1.776.777.747.747 0 0 0 1.051-.138.75.75 0 0 0-.139-1.052 5.611 5.611 0 0 0-2.422-1.064Zm3.345-3.087a.75.75 0 1 0-.656 1.349 8.244 8.244 0 0 1 1.788 1.173.745.745 0 0 0 1.057-.077.75.75 0 0 0-.077-1.058 9.76 9.76 0 0 0-2.112-1.387Zm3.03-2.937a.75.75 0 1 0-.776 1.284c.653.396 1.283.86 1.871 1.38a.749.749 0 0 0 1.06-.065.751.751 0 0 0-.065-1.059 14.571 14.571 0 0 0-2.09-1.54Z"/></svg>
